public/assets/acme-logo.svg

<svg width="120" height="40" viewBox="0 0 120 40" fill="none" xmlns="http://www.w3.org/2000/svg">
<path fill-rule="evenodd" clip-rule="evenodd" d="M13.3777 0.432831L0 39.9993H10.2298L12.0003 34.3782H19.8693V39.9993H29.9019V0.432831H13.3777ZM19.6727 22.9193H15.5413L19.6727 13.4056V22.9193ZM59.6065 0H43.672C38.3599 0 36.5901 7.56774 36.5901 7.56774L32.8525 31.1352C32.8525 31.1352 31.4751 40 38.3606 40H53.3115L54.8854 28.325H46.8199C46.8199 28.325 43.2789 29.19 43.8693 24.8652C44.0659 24.2163 45.4432 15.5676 45.4432 15.5676C45.4432 15.5676 45.8363 12.5406 47.6068 12.5406H57.6395L59.6065 0ZM64.3283 0.216772L56.8525 39.9993H66.6892L70.0329 23.1353L70.8199 39.9993H76.132L82.0326 23.1353L79.082 39.9993H87.9338L95.2137 0H82.6236L76.5245 16.6486V0.216772H64.3283ZM92.8528 39.9993L99.7369 0H120L118.426 11.4604H107.804L107.213 15.3515H117.443L115.869 24.0003L105.443 23.7842L104.852 27.6754H115.278L113.115 39.9993H92.8528Z" fill="white"/>
</svg>

<svg width="120" height="40" fill="none" xmlns="http://www.w3.org/2000/svg"><path fill-rule="evenodd" clip-rule="evenodd" d="M13.378.433 0 39.999h10.23L12 34.38h7.87V40h10.032V.433H13.378Zm6.295 22.486H15.54l4.132-9.513v9.513ZM59.606 0H43.672C38.36 0 36.59 7.568 36.59 7.568l-3.738 23.567S31.476 40 38.361 40h14.95l1.574-11.675H46.82s-3.541.865-2.95-3.46c.196-.649 1.573-9.297 1.573-9.297s.393-3.027 2.164-3.027h10.032L59.606 0Zm4.722.217-7.476 39.782h9.837l3.344-16.864L70.82 40h5.312l5.9-16.864L79.083 40h8.852l7.279-40h-12.59l-6.1 16.649V.217H64.329Zm28.525 39.782L99.737 0H120l-1.574 11.46h-10.622l-.591 3.891h10.23l-1.574 8.65-10.426-.217-.591 3.891h10.426L113.115 40H92.853Z" fill="#fff"/></svg>
